communes/13.svg

<?xml version="1.0" encoding="UTF-8" standalone="no"?>
<svg
   xmlns:dc="http://purl.org/dc/elements/1.1/"
   xmlns:cc="http://creativecommons.org/ns#"
   xmlns:rdf="http://www.w3.org/1999/02/22-rdf-syntax-ns#"
   xmlns:svg="http://www.w3.org/2000/svg"
   xmlns="http://www.w3.org/2000/svg"
   xmlns:sodipodi="http://sodipodi.sourceforge.net/DTD/sodipodi-0.dtd"
   xmlns:inkscape="http://www.inkscape.org/namespaces/inkscape"
   version="1.0"
   width="227.06171"
   height="265.9675"
   id="svg2780"
   sodipodi:docname="13.svg">
  <metadata
     id="metadata10">
    <rdf:RDF>
      <cc:Work
         rdf:about="">
        <dc:format>image/svg+xml</dc:format>
        <dc:type
           rdf:resource="http://purl.org/dc/dcmitype/StillImage" />
      </cc:Work>
    </rdf:RDF>
  </metadata>
  <sodipodi:namedview
     pagecolor="#ffffff"
     bordercolor="#666666"
     borderopacity="1"
     objecttolerance="10"
     gridtolerance="10"
     guidetolerance="10"
     inkscape:pageopacity="0"
     inkscape:pageshadow="2"
     inkscape:window-width="640"
     inkscape:window-height="480"
     id="namedview8" />
  <defs
     id="defs2782" />
  <g
     transform="translate(-10.48477,-799.9855)"
     id="layer1">
    <path
       d="M 11.48477,800.9855 L 15.576797,972.87126 C 18.499665,1095.6469 229.53157,1095.6469 232.45445,972.87126 L 236.54648,800.9855 L 11.48477,800.9855 z"
       id="path3282"
       style="fill:#2162bc;fill-opacity:1;fill-rule:evenodd;stroke:none;stroke-width:2;stroke-linecap:butt;stroke-miterlimit:4;stroke-dashoffset:0;stroke-opacity:1" />
    <path
       d="M 123.9375,-3.34375 C 112.09759,62.05361 71.179849,117.34379 15.09375,148.71875 L 15.5625,168.53125 C 15.915259,183.34897 19.31633,196.38397 25,207.625 C 63.726661,189.51203 97.578211,162.68452 124,129.65625 C 150.42381,162.69185 184.29309,189.51477 223.03125,207.625 C 228.71492,196.38397 232.11599,183.34897 232.46875,168.53125 L 232.9375,148.71875 C 176.84065,117.34446 135.90099,62.055425 124.0625,-3.34375 L 123.9375,-3.34375 z"
       transform="translate(0,804.33069)"
       id="path3776"
       style="opacity:1;color:#000000;fill:#ffffff;fill-opacity:1;fill-rule:evenodd;stroke:#000000;stroke-width:1pt;stroke-linecap:butt;stroke-linejoin:miter;marker:none;marker-start:none;marker-mid:none;marker-end:none;stroke-miterlimit:4;stroke-dasharray:none;stroke-dashoffset:0;stroke-opacity:1;visibility:visible;display:inline;overflow:visible;enable-background:accumulate" />
    <path
       d="M 11.48477,800.9855 L 15.576797,972.87126 C 18.499665,1095.6469 229.53157,1095.6469 232.45445,972.87126 L 236.54648,800.9855 L 11.48477,800.9855 z"
       id="path4547"
       style="fill:none;fill-opacity:1;fill-rule:evenodd;stroke:#000000;stroke-width:2;stroke-linecap:butt;stroke-miterlimit:4;stroke-dashoffset:0;stroke-opacity:1" />
  </g>
</svg>

<?xml version="1.0" encoding="UTF-8"?>
<svg version="1.0" viewBox="0 0 227.06 265.97" xmlns="http://www.w3.org/2000/svg" xmlns:cc="http://creativecommons.org/ns#" xmlns:dc="http://purl.org/dc/elements/1.1/" xmlns:rdf="http://www.w3.org/1999/02/22-rdf-syntax-ns#">
<metadata>
<rdf:RDF>
<cc:Work rdf:about="">
<dc:format>image/svg+xml</dc:format>
<dc:type rdf:resource="http://purl.org/dc/dcmitype/StillImage"/>
</cc:Work>
</rdf:RDF>
</metadata>
<g transform="translate(-10.485 -799.99)">
<path d="m11.485 800.99 4.092 171.89c2.9229 122.78 213.95 122.78 216.88 0l4.092-171.89h-225.06z" fill="#2162bc" fill-rule="evenodd"/>
<path transform="translate(0 804.33)" d="m123.94-3.3438c-11.84 65.397-52.758 120.69-108.84 152.06l0.46875 19.812c0.35276 14.818 3.7538 27.853 9.4375 39.094 38.727-18.113 72.578-44.94 99-77.969 26.424 33.036 60.293 59.859 99.031 77.969 5.6837-11.241 9.0847-24.276 9.4375-39.094l0.46875-19.812c-56.097-31.374-97.037-86.663-108.88-152.06h-0.125z" color="#000000" fill="#fff" fill-rule="evenodd" stroke="#000" stroke-width="1pt"/>
<path d="m11.485 800.99 4.092 171.89c2.9229 122.78 213.95 122.78 216.88 0l4.092-171.89h-225.06z" fill="none" stroke="#000" stroke-width="2"/>
</g>
</svg>
